X:1
T:Londonderry Air
T:Trad. arr. Carmenbeth
%%score [ 1 2 3 ]
L:1/8
M:4/4
K:C
V:1 treble nm="Violins 1" snm="Vlns. 1"
V:2 treble nm="Violins 2" snm="Vlns. 2"
V:3 bass nm="Violoncello" snm="Vlc."
V:1
 z B,CD EAGE | DCA,B, C4 |: z4 z B,CD | E3 D EAGE | DC A,2- A,CEF | G3 A GECE | D4 z B,CD | %7
 E3 D EAGE | DC A,2- A,B,CD | E3 F EDCD | C4 z GAB | c3 B BAGE | GE C2- CGAB | c3 B BAGE | %14
 D4 z GGG | e3 d dcAc | GE C2- CB,CD | E3 A GEDC | A,B, C6 :| %19
V:2
 z8 | A,2 G,2 C4 |: B,2 A,2 G,4 | G,4 C2 D2 | A,8 | C4 E4 | C2 F2 G,4 | D2 G,2 C2 D2 | %8
 A,2 A,G, A,G,A,B, | C4 C4 | C4 G,2 G2 | E4 A,4 | C4 C4 | A4 A,4 | A,4 D4 | G4 A4 | C4 C4 | %17
 G,4 E2 A,2 | AB c6 :| %19
V:3
 z4 G,E, E,2 | D,E,D,F, C,G,A,E, |: C,4 z G,2 G, | C,3 F, G,F, E,2 | F,4- F,G,C,D, | %5
 E,3 F, G,2 A,2 | G,4- G, G,2 G, | D,2 G,F, E,D, E,2 | F,A, D,2- D,D,E,F, | A,2 B,A, G,F, G,2 | %10
 C,4 z G,,2 G,, | C,2 E,2 F,A, C2 | E,2 A,2- A,E,F,G, | A,2 E,2 F,A,CB, | A,2 D,2 G,,4 | %15
 C,2 E,2 F,4 | G,2 A,2 A,F,E,D, | C,4 C,2 F,2 | D,G, C,6 :| %19

